X:1
T:The Macedon Youth
T:The Macedon Youth
T:Henry Purcell
C:Henry Purcell
%%score [ 1 2 3 4 ]
L:1/8
M:3/4
K:C
V:1 treble-8 nm="I"
V:2 treble-8 nm="II"
V:3 treble-8 nm="III"
V:4 treble-8 nm="IV"
V:1
 G2 | c3 d e2 | c4 c B | A3 B c2 | B4 c2 | A F3 D2 | E3 F G2 | C2 C2 :| %8
w: The|Ma- ce- don|Youth left be-|hind him his|truth: that|no- thing was|done with much|think- ing;|
V:2
 E2 | C2 C2 c2 | e4 e d | c3 B A2 | G3 F E2 | F2 fe fd | g3 f e2 | c2 c2 :| %8
w: he|drank and he|fought, and he|got what he|sought, and the|World was _ his _|own by fair|drink- ing.|
V:3
 C2 | E3 D C2 | c4 cd | e3 d c2 | g4 g2 | a2 A2 d2 | d G2 c B2 | c2 c2 :| %8
w: He|wash'd his great|Soul in a|plent- i- ful|Bowl, he|cast a- way|Trou- * ble and|Sor- row;|
V:4
 e2 | g2 g2 g2 | g>fg3/2 a/ g2 | g2 c2 f2 | d4 e d | c3 d B2 | c2 BA GF | E2 C2 :| %8
w: His|Mind did not|run _ _ of what|was to be|done, for he|thought of to-|day, not _ to- *|mor- row.|

